icons/1_Primary/Robinhood.svg

<svg xmlns="http://www.w3.org/2000/svg" viewBox="0 0 1024 1024">
   <circle cx="512" cy="512" r="512" style="fill:#00c805"/>
   <path d="m481.2 657.7-3.4 1.1c-21.9 7.3-54.3 18.5-83.3 31.8-1.6.7-2.6 2.8-2.6 2.8-.5 1.2-1.2 2.8-2 4.5l-.1.2c-3.3 7.4-7.7 18.6-9.7 23.1l-1.5 3.6c-.2.6-.1 1.2.4 1.6.3.3.6.4 1 .4.2 0 .4 0 .7-.2l3.5-1.7c8-3.8 18-9.5 28.6-14.5l.4-.2c20.1-9.5 42.7-20.3 56.4-26.8 0 0 2.2-1.2 3.3-3.4l10.2-20.5c.3-.5.2-1.2-.2-1.6-.5-.2-1.1-.4-1.7-.2zm-81.6-31.8c1.4-2.8 8.1-15.5 9.6-18.4l.3-.5c44.3-83.6 98.4-162.5 160.6-234.4l1.7-2c.5-.6.6-1.5.2-2.2-.4-.7-1.2-1.1-2-1l-2.6.4c-40.8 5.6-82.1 13.4-122.8 23.1-4 1.1-6.6 3.8-7.2 4.4-30.5 36.5-59.3 74.9-85.7 114.2-1.3 2-1.5 6.7-1.5 6.7s6.7 51.2 16.4 89C342.4 674.3 321 765.5 321 765.5c-.2.6-.1 1.2.3 1.7s.9.8 1.6.8h13.7c.9 0 1.6-.5 1.9-1.3l.9-2.6c14-38.1 29.9-75.8 47.5-112.4 4.1-8.5 12.7-25.8 12.7-25.8zm190.5-238.3V385c0-.8-.5-1.6-1.3-1.8-.8-.3-1.6-.1-2.2.6l-1.7 2c-72.5 83.9-133.5 177-181.2 276.7l-1.1 2.3c-.4.7-.2 1.6.3 2.2.4.4.9.6 1.4.6.2 0 .5 0 .8-.1l2.4-1c40.7-16.9 82.3-31.5 123.7-43.4 2.5-.7 4.6-2.4 5.7-4.7 18.1-35.3 60.2-103.7 60.2-103.7 1.1-1.5.8-3.8.8-3.8s-7.4-82-7.8-123.3zm93.7-117.9c-10.3-8.9-25.2-13.1-48.4-13.6-21-.5-46.1 4.1-74.4 13.4-4.3 1.5-7.6 3.8-10.7 6.8-28.8 27.1-56.9 55.8-83.4 85.4l-2 2.3c-.6.6-.6 1.6-.2 2.3.4.7 1.3 1.1 2.1.9l3-.6c42.7-9.1 85.9-16.1 128.2-20.7 2.8-.3 5.7.6 7.7 2.5 2.1 1.9 3.3 4.6 3.2 7.5-.7 42 .8 84.2 4.6 125.4l.2 2.7c.1.8.7 1.5 1.5 1.7.1 0 .3.1.5.1.6 0 1.3-.3 1.7-.8l1.6-2.2c23.8-34 49.8-67.1 77.1-98.4 3.1-3.5 3.9-5.7 4.4-8.8 8.5-55-4.8-95.7-16.7-105.9z" style="fill:#fff"/>
</svg>

<svg width="1024" height="1024" viewBox="0 0 1024 1024" fill="none" xmlns="http://www.w3.org/2000/svg">
<g clip-path="url(#clip0_2_3354)">
<path d="M512 1024C794.77 1024 1024 794.77 1024 512C1024 229.23 794.77 0 512 0C229.23 0 0 229.23 0 512C0 794.77 229.23 1024 512 1024Z" fill="#98DC9A"/>
<path d="M481.2 657.7L477.8 658.8C455.9 666.1 423.5 677.3 394.5 690.6C392.9 691.3 391.9 693.4 391.9 693.4C391.4 694.6 390.7 696.2 389.9 697.9L389.8 698.1C386.5 705.5 382.1 716.7 380.1 721.2L378.6 724.8C378.4 725.4 378.5 726 379 726.4C379.3 726.7 379.6 726.8 380 726.8C380.2 726.8 380.4 726.8 380.7 726.6L384.2 724.9C392.2 721.1 402.2 715.4 412.8 710.4L413.2 710.2C433.3 700.7 455.9 689.9 469.6 683.4C469.6 683.4 471.8 682.2 472.9 680L483.1 659.5C483.4 659 483.3 658.3 482.9 657.9C482.4 657.7 481.8 657.5 481.2 657.7ZM399.6 625.9C401 623.1 407.7 610.4 409.2 607.5L409.5 607C453.8 523.4 507.9 444.5 570.1 372.6L571.8 370.6C572.3 370 572.4 369.1 572 368.4C571.6 367.7 570.8 367.3 570 367.4L567.4 367.8C526.6 373.4 485.3 381.2 444.6 390.9C440.6 392 438 394.7 437.4 395.3C406.9 431.8 378.1 470.2 351.7 509.5C350.4 511.5 350.2 516.2 350.2 516.2C350.2 516.2 356.9 567.4 366.6 605.2C342.4 674.3 321 765.5 321 765.5C320.8 766.1 320.9 766.7 321.3 767.2C321.7 767.7 322.2 768 322.9 768H336.6C337.5 768 338.2 767.5 338.5 766.7L339.4 764.1C353.4 726 369.3 688.3 386.9 651.7C391 643.2 399.6 625.9 399.6 625.9ZM590.1 387.6V385C590.1 384.2 589.6 383.4 588.8 383.2C588 382.9 587.2 383.1 586.6 383.8L584.9 385.8C512.4 469.7 451.4 562.8 403.7 662.5L402.6 664.8C402.2 665.5 402.4 666.4 402.9 667C403.3 667.4 403.8 667.6 404.3 667.6C404.5 667.6 404.8 667.6 405.1 667.5L407.5 666.5C448.2 649.6 489.8 635 531.2 623.1C533.7 622.4 535.8 620.7 536.9 618.4C555 583.1 597.1 514.7 597.1 514.7C598.2 513.2 597.9 510.9 597.9 510.9C597.9 510.9 590.5 428.9 590.1 387.6ZM683.8 269.7C673.5 260.8 658.6 256.6 635.4 256.1C614.4 255.6 589.3 260.2 561 269.5C556.7 271 553.4 273.3 550.3 276.3C521.5 303.4 493.4 332.1 466.9 361.7L464.9 364C464.3 364.6 464.3 365.6 464.7 366.3C465.1 367 466 367.4 466.8 367.2L469.8 366.6C512.5 357.5 555.7 350.5 598 345.9C600.8 345.6 603.7 346.5 605.7 348.4C607.8 350.3 609 353 608.9 355.9C608.2 397.9 609.7 440.1 613.5 481.3L613.7 484C613.8 484.8 614.4 485.5 615.2 485.7C615.3 485.7 615.5 485.8 615.7 485.8C616.3 485.8 617 485.5 617.4 485L619 482.8C642.8 448.8 668.8 415.7 696.1 384.4C699.2 380.9 700 378.7 700.5 375.6C709 320.6 695.7 279.9 683.8 269.7Z" fill="white"/>
</g>
<defs>
<clipPath id="clip0_2_3354">
<rect width="1024" height="1024" fill="white"/>
</clipPath>
</defs>
</svg>
